X:41
T:Qu'est-ce qui se passe ici si tard
R:
S:
N:p. 60
A:Champagne
G:
O:France
Z:<anamnese@laposte.net>
M:2/4
L:1/8
Q:1/4=135
K:C
GG | ee de | c2 Bc | dd/d/ cd | ee gg | ee de | c2d2 | e2 (3BcB | A2 z2 ||
